X: 39636
T: Temple Hill
R: reel
M: 4/4
K: Gdorian
DGGA d2cA|d2cA FGAF|DGGA dcde|fdcA FGAF|
DGGA d2cA|d2cA FGAc|dcde fgag|fdcA GABc||
dgg2 a2ga|fdcA FGAc|dgg2 abga|fdcA G2Bc|
dgg2 a2ga|fdcA FGAc|dcde fgaf|fdcA G3A||
B2dc AFF2|GFDE FDC2|BDGB ADFA|GcAG GFGA|
B2dc AFF2|GFDE FDCF|FAGB Acfd|cAFA G4||

